X:1
T:[ID 1-56]
T:[ID 1-56]
T:Bezeichnung standardisiert: Menuet Cloris en Roosje; Menuetto Con Trio In dieser Quelle auch als: Menuet
T:Urheber unbekannt Datum in der hier transkribierten schriftlichen Quelle: 1776 - 1791
C:Urheber unbekannt
C:Datum in der hier transkribierten schriftlichen Quelle: 1776 - 1791
L:1/8
M:3/4
K:G
V:1 treble 
V:1
 G2 gdBG | (3efg e2 d2 | c2 (3cBA (3BAG | A4 G2 | e2 d'ed'e | d2 c'dc'd | c2 acBg | A6 :: %8
 d2 d'afd | Age^c d2 | c2 acBg | A4 d2 | e2 (3d'c'b (3agf | d2 (3c'ba (3gfe | c2 B2 A2 | G6 :| %16
[M:3/4]"^Trio" !fermata!B4 AB | c4 Bc"^[Notat bricht ab]" | x6 | %19

